X:18321
T:Virxen de Gua (XA 40)
C:Tradicional
S:Msica Tradicional Asturiana, (C) Tello & Tito. Asturies, 2001.
S:http://pagina.de/MusTradAst <telloytito@asturies.org>
O:Llanes
A:Asturies
Z:Mtodu de Xuacu Amieva 40
M:3/8
L:1/8
Q:3/8=60
K:C
|G3-|GFE|D C2-|C2 C|F3-|F~ED|E3-|E3|
|G3-|GF~E|D C2-|C2 C|D3-|D~CB,|[1 C3-|C3 :|[2 C3|z3|
|: .E ~E/D/E/F/|.E ~E/D/E/F/|.G G/G/E/A/|~G~F~E|D3 :|
|C>~DC/D/|.EE~D|C>~DC/D/|E G/F/~E/D/|
|E>FE/F/|D E/~D/C/B,/|C>FE/F/|D E/~D/C/B,/|
|C>~DC/D/|C>~DC/D/|C>~DC/D/|C/D/C/D/E/F/|G3|
